X: 50
T: REELS: Ashplant Set
T: Ashplant
C: C: Trad.; S: Various
C: Set Leaders: Andrey, Anton, Tania
Z: Anton Zille ed., Oleg Naumov arr.; Sergei Ejov / Benjamin Glauser at The Session
N: https://thesession.org/members/26966/sets/96716
R: Reel
M: 4/4
L: 1/8
Q: 1/2=100
K: Edor
|:"Em"BE~E2 BAGA|"(C)"BE~E2 ~G2 GA|"(G)"BE~E2 BABd|"G"gedB "D"A2 GA:||
"Em"B2 eB gBeB|"Em"~B2 ed "D"BAGA|"Em (C)"B2 eB ~g3a|"G"gedB "D"A2 GA|
"Em"B2 eB gBeB|"(C)"~B2 ed BAGA|"G"B/c/d ef ~g3a|"D"gedB A2 GA||
T: Toss the Feathers (Edor)
K: Edor
"Em"EB~B2 dB~B2|"Em"EBBA "D"FEFA|"Em"BE~E2 B2 AB|"D"defe "(Bm)"dBAF|
"Em"EB~B2 dB~B2|"Em"EBBA "D"FEFA|"C"BE~E2 B2 AB| "Am"defe "D"dB A2||
"Em"Beed e2 de|"D"fede fe e2|"Em"febe febe|"D/B"fede feed|
"Em"Beed e2 de|"D"fede faaf|"G"b2 bf "D"a2 af|"C"egfe "D"dBAF||

